**kern	**text	**text	**text	**text	**harte
!!pagebreak:original
*clefG2	*	*	*	*	*
*k[b-]	*	*	*	*	*
*d:	*	*	*	*	*
*M12/8	*	*	*	*	*
4.a	Dm:	.	.	.	.
=1	=1	=1	=1	=1	=1
[2.ff	i	.	.	.	D:min
4.ff]	.	.	.	.	.
4.dd	.	.	.	.	.
=2	=2	=2	=2	=2	=2
*M9/8	*	*	*	*	*
**kern	**text	**text	**text	**text	**harte
!!pagebreak:original
*clefG2	*	*	*	*	*
*k[b-]	*	*	*	*	*
*d:	*	*	*	*	*
*M12/8	*	*	*	*	*
4.a	Dm:	.	.	.	.
=1	=1	=1	=1	=1	=1
[2.ff	i	.	.	.	D:min
4.ff]	.	.	.	.	.
4.dd	.	.	.	.	.
=2	=2	=2	=2	=2	=2
*M9/8	*	*	*	*	*
**kern	**text	**text	**text	**text	**harte
!!pagebreak:original
*clefG2	*	*	*	*	*
*k[b-]	*	*	*	*	*
*d:	*	*	*	*	*
*M12/8	*	*	*	*	*
4.a	Dm:	.	.	.	.
=1	=1	=1	=1	=1	=1
[2.ff	i	.	.	.	D:min
4.ff]	.	.	.	.	.
4.dd	.	.	.	.	.
=2	=2	=2	=2	=2	=2
*M9/8	*	*	*	*	*
**kern	**text	**text	**text	**text	**harte
!!pagebreak:original
*clefG2	*	*	*	*	*
*k[b-]	*	*	*	*	*
*d:	*	*	*	*	*
*M12/8	*	*	*	*	*
4.a	Dm:	.	.	.	.
=1	=1	=1	=1	=1	=1
[2.ff	i	.	.	.	D:min
4.ff]	.	.	.	.	.
4.dd	.	.	.	.	.
=2	=2	=2	=2	=2	=2
*M9/8	*	*	*	*	*
**kern	**text	**text	**text	**text	**harte
!!pagebreak:original
*clefG2	*	*	*	*	*
*k[b-]	*	*	*	*	*
*d:	*	*	*	*	*
*M12/8	*	*	*	*	*
4.a	Dm:	.	.	.	.
=1	=1	=1	=1	=1	=1
[2.ff	i	.	.	.	D:min
4.ff]	.	.	.	.	.
4.dd	.	.	.	.	.
=2	=2	=2	=2	=2	=2
*M9/8	*	*	*	*	*
8ggL	iv64	.	.	.	G:min/5
8ff	.	.	.	.	.
8eeJ	.	.	.	.	.
4.ff	i	.	.	.	D:min
4.dd	.	.	.	.	.
=3	=3	=3	=3	=3	=3
8ffL	i	.	.	.	.
8ee	.	.	.	.	.
8ddJ	.	.	.	.	.
4.ee	v64	.	.	.	A:min/5
4.cc	.	.	.	.	.
=4	=4	=4	=4	=4	=4
2.dd	VI64	.	.	.	Bb/5
4.cc	v	.	.	//	A:min
!!linebreak:original
=5	=5	=5	=5	=5	=5
2.a	III	.	.	.	F
4.a	V64	.	.	.	A/5
=6	=6	=6	=6	=6	=6
2.ff	i	.	.	.	D:min
4.dd	.	.	.	.	.
=7	=7	=7	=7	=7	=7
8ddL	iiD5	.	.	.	E:min7(b5)/b5
8ee	.	.	.	.	.
8ffJ	.	.	.	.	.
4.gg	.	.	.	.	.
4.ee	.	.	.	.	.
=8	=8	=8	=8	=8	=8
4.aa	i64	var1 C64	.	.	D:min/5
2.gg	bII	.	.	.	Eb
=9	=9	=9	=9	=9	=9
2.aa	i	.	.	[MC]	D:min
4.r	.	.	.	]]	.
=	=	=	=	=	=
*-	*-	*-	*-	*-	*-
!!!system-decoration: [(s1)]
